imgs/login-background.svg

<?xml version="1.0" encoding="UTF-8" standalone="no"?>
<svg
   width="40.400002cm"
   height="42cm"
   viewBox="2.4 -200 1526.9286 1587.4016"
   fill="none"
   version="1.1"
   id="svg49"
   sodipodi:docname="Fon.svg"
   inkscape:version="1.1.1 (3bf5ae0d25, 2021-09-20)"
   shape-rendering="crispEdges"
   xmlns:inkscape="http://www.inkscape.org/namespaces/inkscape"
   xmlns:sodipodi="http://sodipodi.sourceforge.net/DTD/sodipodi-0.dtd"
   xmlns="http://www.w3.org/2000/svg"
   xmlns:svg="http://www.w3.org/2000/svg">
  <sodipodi:namedview
     id="namedview51"
     pagecolor="#505050"
     bordercolor="#eeeeee"
     borderopacity="1"
     inkscape:pageshadow="0"
     inkscape:pageopacity="0"
     inkscape:pagecheckerboard="false"
     showgrid="false"
     width="40.4cm"
     inkscape:zoom="0.45254834"
     inkscape:cx="456.30484"
     inkscape:cy="325.93203"
     inkscape:window-width="1920"
     inkscape:window-height="1017"
     inkscape:window-x="-8"
     inkscape:window-y="-8"
     inkscape:window-maximized="1"
     inkscape:current-layer="g28"
     height="1408.8px"
     units="cm"
     showborder="true"
     inkscape:showpageshadow="true"
     viewbox-width="2245.4393"
     scale-x="1"
     viewbox-x="2.4"
     viewbox-y="-152.5"
     viewbox-height="1430.3204"
     inkscape:document-units="cm" />
  <g
     filter="url(#filter0_d_3511_1111)"
     id="g28">
    <mask
       id="mask0_3511_1111"
       maskUnits="userSpaceOnUse"
       x="184"
       y="314"
       width="246"
       height="328">
      <path
         d="M 184,314.195 H 429.958 V 641.847 H 184 Z"
         fill="#ffffff"
         id="path4" />
    </mask>
    <mask
       id="mask1_3511_1111"
       maskUnits="userSpaceOnUse"
       x="512"
       y="785"
       width="333"
       height="403">
      <path
         d="M 512.85,785.194 H 844.421 V 1187 H 512.85 Z"
         fill="#ffffff"
         id="path13" />
    </mask>
    <g
       id="g311"
       transform="translate(-128.67692,-17.369153)">
      <g
         id="g38"
         transform="translate(83.076922,70.096153)">
        <path
           fill-rule="evenodd"
           clip-rule="evenodd"
           d="M 854.458,354.75 H 1176.32 V 752.316 H 854.458 Z"
           fill="#cadfff"
           id="path2" />
        <g
           mask="url(#mask0_3511_1111)"
           id="g9">
          <path
             fill-rule="evenodd"
             clip-rule="evenodd"
             d="M 183.352,320.994 H 427.173 V 622.248 H 183.352 Z"
             fill="#cadfff"
             id="path7" />
        </g>
        <path
           fill-rule="evenodd"
           clip-rule="evenodd"
           d="m 1146.07,866.787 h 146.3 v 180.703 h -146.3 z"
           fill="#cadfff"
           id="path11" />
        <g
           mask="url(#mask1_3511_1111)"
           id="g18">
          <path
             fill-rule="evenodd"
             clip-rule="evenodd"
             d="m 526.709,804.712 h 314.54 v 388.608 h -314.54 z"
             fill="#cadfff"
             id="path16" />
        </g>
        <path
           fill-rule="evenodd"
           clip-rule="evenodd"
           d="m 240.599,728.239 h 180.68 V 951.42 h -180.68 z"
           fill="#cadfff"
           id="path20" />
        <path
           d="m 1203.32,969.338 -198.94,-393.967 -700.833,-80.793 3.432,-45.916 719.351,82.953 208.79,413.325 z"
           fill="#cadfff"
           id="path24" />
        <path
           d="m 1000.75,539.295 444.78,-694.022 29.27,28.558 -444.78,693.941 z"
           fill="#cadfff"
           id="path26" />
      </g>
    </g>
  </g>
  <defs
     id="defs47">
    <filter
       id="filter0_d_3511_1111"
       x="0.100006"
       y="-409.89999"
       width="1742.46"
       height="1780.8"
       filterUnits="userSpaceOnUse"
       color-interpolation-filters="sRGB">
      <feFlood
         flood-opacity="0"
         result="BackgroundImageFix"
         id="feFlood30" />
      <feColorMatrix
         in="SourceAlpha"
         type="matrix"
         values="0 0 0 0 0 0 0 0 0 0 0 0 0 0 0 0 0 0 127 0"
         result="hardAlpha"
         id="feColorMatrix32" />
      <feOffset
         id="feOffset34" />
      <feGaussianBlur
         stdDeviation="91.95"
         id="feGaussianBlur36" />
      <feComposite
         in2="hardAlpha"
         operator="out"
         id="feComposite38" />
      <feColorMatrix
         type="matrix"
         values="0 0 0 0 0.263333 0 0 0 0 0.6022 0 0 0 0 1 0 0 0 0.4 0"
         id="feColorMatrix40" />
      <feBlend
         mode="normal"
         in2="BackgroundImageFix"
         result="effect1_dropShadow_3511_1111"
         id="feBlend42" />
      <feBlend
         mode="normal"
         in="SourceGraphic"
         in2="effect1_dropShadow_3511_1111"
         result="shape"
         id="feBlend44" />
    </filter>
  </defs>
</svg>

<svg width="1232" height="1080" viewBox="0 0 1232 1080" fill="none" xmlns="http://www.w3.org/2000/svg">
<g filter="url(#filter0_d_3022_3)">
<path fill-rule="evenodd" clip-rule="evenodd" d="M854.459 354.75H1176.32V752.316H854.459V354.75Z" fill="#CADFFF"/>
<mask id="mask0_3022_3" style="mask-type:luminance" maskUnits="userSpaceOnUse" x="184" y="314" width="246" height="328">
<path d="M184 314.195H429.958V641.847H184V314.195Z" fill="white"/>
</mask>
<g mask="url(#mask0_3022_3)">
<path fill-rule="evenodd" clip-rule="evenodd" d="M183.352 320.994H427.173V622.248H183.352V320.994Z" fill="#CADFFF"/>
</g>
<path fill-rule="evenodd" clip-rule="evenodd" d="M1146.07 866.787H1292.37V1047.49H1146.07V866.787Z" fill="#CADFFF"/>
<mask id="mask1_3022_3" style="mask-type:luminance" maskUnits="userSpaceOnUse" x="512" y="785" width="333" height="403">
<path d="M512.85 785.194H844.421V1187H512.85V785.194Z" fill="white"/>
</mask>
<g mask="url(#mask1_3022_3)">
<path fill-rule="evenodd" clip-rule="evenodd" d="M526.709 804.712H841.249V1193.32H526.709V804.712Z" fill="#CADFFF"/>
</g>
<path fill-rule="evenodd" clip-rule="evenodd" d="M240.599 728.239H421.279V951.42H240.599V728.239Z" fill="#CADFFF"/>
<path fill-rule="evenodd" clip-rule="evenodd" d="M1119.72 -156.086H1275.79V36.6979H1119.72V-156.086Z" fill="#CADFFF"/>
<path d="M1203.32 969.338L1004.38 575.371L303.547 494.578L306.979 448.662L1026.33 531.615L1235.12 944.94L1203.32 969.338Z" fill="#CADFFF"/>
<path d="M1000.75 539.295L1445.53 -154.727L1474.8 -126.169L1030.03 567.772L1000.75 539.295Z" fill="#CADFFF"/>
</g>
<defs>
<filter id="filter0_d_3022_3" x="0.100006" y="-409.9" width="1742.46" height="1780.8" filterUnits="userSpaceOnUse" color-interpolation-filters="sRGB">
<feFlood flood-opacity="0" result="BackgroundImageFix"/>
<feColorMatrix in="SourceAlpha" type="matrix" values="0 0 0 0 0 0 0 0 0 0 0 0 0 0 0 0 0 0 127 0" result="hardAlpha"/>
<feOffset/>
<feGaussianBlur stdDeviation="91.95"/>
<feComposite in2="hardAlpha" operator="out"/>
<feColorMatrix type="matrix" values="0 0 0 0 0.263333 0 0 0 0 0.6022 0 0 0 0 1 0 0 0 0.4 0"/>
<feBlend mode="normal" in2="BackgroundImageFix" result="effect1_dropShadow_3022_3"/>
<feBlend mode="normal" in="SourceGraphic" in2="effect1_dropShadow_3022_3" result="shape"/>
</filter>
</defs>
</svg>
